X:13033
T:Mrs Saggs
R:March
C:Chris Wood 1990
O:England
Z:Paul Hardy's Session Tunebook 2015 (see www.paulhardy.net). Creative Commons cc by-nc-sa licenced.
M:2/2
L:1/8
Q:1/2=50
K:G
DGA|"G"B4 "D"A2 GF|"G"G6 Bd|"C"e/2f/2g "G"dg "Am7"cg "G"dg|g2 fe "D"fdef|
"G"g2 d2 "Am"cBAG|"G"D2 "Am"C2 "G"B,2 D2|"C"ECEG "D"BAGF|"G"G4 z:|
|:GAB|"C"c4 "G"B2 AG|"D"DFAd fdef|"G"g2d2 "Am"cBAG|"G"B2 AG "D"A2 AB|
"C"c4 "G"B2AG|"D"FAdf a2 gf|"G"g2 d2 "C"cBAG|"G"G4 z:|

